X: 14776
T: Gan Ainm
R: polka
M: 2/4
K: Dmajor
AF/G/ AB|Af fe/d/|bb bb|b/a/b/c'/ d'/a/f|
AF/G/ AB|Af fe/d/|bb ba|^g/a/b/c'/ d'2||
e'b e'b|e'b b/c'/b|e'b e'^g|ba a/^g/a|
e'b e'b|e'b b/c'/b|e'b e'^g|aa a2||
aa/d'/ bb/d'/|aa/b/ a/f/d|gg/e'/ ff/d'/|e/^d/e/f/ e/c/A|
aa/d'/ bb/d'/|aa/b/ a/f/d|gg/e'/ ff/d'/|e/^d/e/f/ =d2||

